X:1
T:Up an' Waun Them a' Jamie
M:4/4
L:1/16
K:G
 G G3 B3 G c4 c e3| G G3 B3 G A6 B2| G3 A B3 Gc c3 c3 e| d3 c B3 A G4 G d2 d|\
 g3 e d3 B c3 c c3 e| g3 ed B3 A4 Ae z f| g3 e d3 B c3 d e3 g| d c3 B3 A G4 G d3|\
